!!!!SEGMENT: pl-sa--85-a-ii-25--001_hasse-johann-adolf--ah-perdona-al-primo-affetto.krn
!!!cenid: 17xx:388
!!!COM: Hasse, Johann Adolf
!!!COM-rismID: pe51928
!!!CDT: 1699/03/25-1783/12/16
!!!CNT: German
!!!OTL: Ah perdona al primo affetto
!!!PDT:
!!!AGN: Sacred
!!!YEC: Copyright 2022 Narodowy Instytut Fryderyka Chopina (https://polishscores.org)
!!!YEM: License CC-BY-4.0 (https://creativecommons.org/licenses/by/4.0)
!!!SMS-siglum: PL-SA
!!!SMS-shelfmark: 85/A II 25
!!!SMS-shelfwork: 001 W
!!!NIFC-rismSourceID: 1001069538
!!!NIFC-rismChildID: 1001069538
!!!NIFC-islandoraID: none
!!!URL-pdf-islandora:
!!!URL-scan: https://bc.bdsandomierz.pl/dlibra/publication/1363/edition/1331/content @EN{Scan in the Sandomierz Diocese Digital Library} @PL{Skany w portalu Cyfrowa Biblioteka Diecezjalna w Sandomierzu}
!!!IIIF:
!!!ONB-nifc:
!!!AIN: 1 empty 1 viola 2 violn 1 vox
!!!key:
**kern	**dynam	**kern	**dynam	**kern	**dynam	**kern	**dynam	**kern	**text
*part5	*	*part4	*	*part3	*	*part2	*	*part1	*
*staff5	*	*staff4	*	*staff3	*	*staff2	*	*staff1	*
*Iempty	*	*Iviola	*	*Ivioln	*	*Ivioln	*	*Ivox	*
*I"Baſso	*	*I"Viola.	*	*I"Violino Secundo	*	*I"Violino Primo	*	*I"Canto	*
*I'b	*	*I'vla	*	*I'vl 2	*	*I'vl 1	*	*I'S solo	*
*clefF4	*	*clefC3	*	*clefG2	*	*clefG2	*	*clefC1	*
*k[f#]	*	*k[f#]	*	*k[f#]	*	*k[f#]	*	*k[f#]	*
*G:	*	*G:	*	*G:	*	*G:	*	*G:	*
*M3/4	*	*M3/4	*	*M3/4	*	*M3/4	*	*M3/4	*
=1	=1	=1	=1	=1	=1	=1	=1	=1	=1
!LO:TX:i:a:t=Aria poco moderato	!	!	!	!	!	!	!	!LO:TX:a:i:t=Aria poco moderato	!
!LO:TX:a:t=P:problem=mixed beam	!	!	!	!	!	!	!	!LO:N:vis=00	!
8G\L	.	8g\L	.	4r	.	4r	.	0.r	.
8GG/	.	8d\	.	.	.	.	.	.	.
8G\	.	8b\	.	4.ddd\	.	4.ddd\	.	.	.
8A\	.	8f#\	.	.	.	.	.	.	.
8B\	.	8g\	.	.	.	.	.	.	.
8c\J	.	8cc\J	.	8eee\	.	8eee\	.	.	.
=2	=2	=2	=2	=2	=2	=2	=2	=2	=2
.	.	8qqb/	.	8qqgg/	.	8qqgg/	.	.	.
!LO:TX:a:t=P:problem=mixed beam	!	!	!	!	!	!	!	!	!
8D/L	.	4.a\	.	4.ff#\	.	4.ff#\	.	.	.
8d\	.	.	.	.	.	.	.	.	.
8c\	.	.	.	.	.	.	.	.	.
8B\	.	8dd\L	.	8gg\	.	8gg\	.	.	.
*	*	*	*	*Xtuplet	*	*Xtuplet	*	*	*
!	!	!	!	!LO:TUP:a:problem=klamra łukowa	!	!LO:TUP:a:problem=klamra łukowa	!	!	!
8A\	.	8f#\	.	24aa\LL	.	24aa\LL	.	.	.
.	.	.	.	24bb\	.	24bb\	.	.	.
.	.	.	.	24ccc\JJ	.	24ccc\JJ	.	.	.
!	!	!	!	!LO:TUP:a:problem=klamra łukowa	!	!LO:TUP:a:problem=klamra łukowa	!	!	!
8G\J	.	8g\J	.	24bb\LL	.	24bb\LL	.	.	.
.	.	.	.	24ccc\	.	24ccc\	.	.	.
.	.	.	.	24ddd\JJ	.	24ddd\JJ	.	.	.
=3	=3	=3	=3	=3	=3	=3	=3	=3	=3
.	.	.	.	8qqddd/	.	8qqddd/	.	.	.
8F#\L	.	8a\L	.	4ccc\	.	4ccc\	.	.	.
8D\	.	8f#\	.	.	.	.	.	.	.
8G\	.	8d\	.	8bb\L	.	8bb\L	.	.	.
8B\	.	8dd\	.	8gg\J	.	8gg\J	.	.	.
!	!	!	!	!LO:TUP:a:problem=klamra łukowa	!	!LO:TUP:a:problem=klamra łukowa	!	!	!
8A\	.	8f#\	.	24aa\LL	.	24aa\LL	.	.	.
.	.	.	.	24bb\	.	24bb\	.	.	.
.	.	.	.	24ccc\JJ	.	24ccc\JJ	.	.	.
!	!	!	!	!LO:TUP:a:problem=klamra łukowa	!	!LO:TUP:a:problem=klamra łukowa	!	!	!
8G\J	.	8g\J	.	24bb\LL	.	24bb\LL	.	.	.
.	.	.	.	24ccc\	.	24ccc\	.	.	.
.	.	.	.	24ddd\JJ	.	24ddd\JJ	.	.	.
=4	=4	=4	=4	=4	=4	=4	=4	=4	=4
.	.	.	.	8qqddd/	.	8qqddd/	.	.	.
!LO:TX:a:t=P:problem=mixed beam	!	!	!	!	!	!	!	!	!
8F#\L	.	8a\L	.	4ccc\	.	4ccc\	.	.	.
8D\	.	8f#\J	.	.	.	.	.	.	.
8G\	.	8g\	.	8bb\L	.	8bb\L	.	.	.
8GG/	.	4b\	.	8ddd\J	.	8ddd\J	.	.	.
!	!	!	!	!LO:TUP:a:problem=klamra łukowa	!	!LO:TUP:a:problem=klamra łukowa	!	!	!
8G\	.	.	.	24dd\LL	.	24dd\LL	.	.	.
.	.	.	.	24ee\	.	24ee\	.	.	.
.	.	.	.	24ffn\JJ	.	24ffn\JJ	.	.	.
!	!	!	!	!LO:TUP:a:problem=klamra łukowa	!	!LO:TUP:a:problem=klamra łukowa	!	!	!
8c\J	.	8cc\	.	24ee\LL	.	24ee\LL	.	.	.
.	.	.	.	24ff\	.	24ff\	.	.	.
.	.	.	.	24gg\JJ	.	24gg\JJ	.	.	.
=5	=5	=5	=5	=5	=5	=5	=5	=5	=5
.	.	.	.	8qqgg/	.	8qqgg/	.	.	.
!LO:TX:a:t=P:problem=mixed beam	!	!	!	!	!	!	!	!LO:N:vis=00	!
8B\L	.	8dd\L	.	4ffn\	.	4ffn\	.	0.r	.
8G\	.	8b\	.	.	.	.	.	.	.
8c\	.	8g\	.	8ee\L	.	8ee\L	.	.	.
8C/	.	8e\	.	8ccc\J	.	8ccc\J	.	.	.
8c\	.	8ee\	.	(>32bb\KLL	.	(>32bb\KLL	.	.	.
.	.	.	.	16.aa\JJ)	.	16.aa\JJ)	.	.	.
8c#X\J	.	8ee\J	.	(>32bb\KLL	.	(>32bb\KLL	.	.	.
.	.	.	.	16.gg\JJ)	.	16.gg\JJ)	.	.	.
=6	=6	=6	=6	=6	=6	=6	=6	=6	=6
.	.	.	.	8qqgg/	.	8qqgg/	.	.	.
8d\L	.	4.a\	.	8.ff#X\L	.	8.ff#X\L	.	.	.
8D\	.	.	.	.	.	.	.	.	.
.	.	.	.	16ee\Jk	.	16ee\Jk	.	.	.
8D\	.	.	.	4dd\	.	4dd\	.	.	.
8d\	.	8f#\L	.	.	.	.	.	.	.
8cn\	.	8a\	.	4r	.	4r	.	.	.
8A\J	.	8f#\J	.	.	.	.	.	.	.
=7	=7	=7	=7	=7	=7	=7	=7	=7	=7
8B\L	.	8d\L	.	8r	.	8r	.	.	.
8G\	.	8b\	.	8gg\L	.	8gg\L	.	.	.
8A\	.	8cc\	.	8ff#\	.	8ff#\	.	.	.
8G\	.	8b\	.	8gg\J	.	8gg\J	.	.	.
8F#\	.	8a\	.	8.aa\L	.	8.aa\L	.	.	.
8D\J	.	8f#\J	.	.	.	.	.	.	.
.	.	.	.	32bb\LL	.	32bb\LL	.	.	.
.	.	.	.	32ccc\JJJ	.	32ccc\JJJ	.	.	.
!	!	!	!	!LO:LB:g=original	!	!	!	!	!
=8	=8	=8	=8	=8	=8	=8	=8	=8	=8
8G\L	.	8d\L	.	8bb\L	.	8bb\L	.	.	.
8B\	.	8dd\	.	32ddd\KL	.	32ddd\KL	.	.	.
.	.	.	.	16.dd\JJ	.	16.dd\JJ	.	.	.
8A\	.	8cc\	.	32ff#\L	.	(>32ff#\L	.	.	.
.	.	.	.	16.dd\J	.	16.dd\J)	.	.	.
8G\	.	8b\	.	32gg\L	.	(>32gg\L	.	.	.
.	.	.	.	16.dd\J	.	16.dd\J)	.	.	.
!	!	!	!	!	!	!LO:LB:g=original	!	!	!
8F#\	.	8a\	.	(>8.aa\L	.	(>8.aa\L	.	.	.
8D\J	.	8f#\J	.	.	.	.	.	.	.
.	.	.	.	32bb\LL)	.	32bb\LL	.	.	.
.	.	.	.	32ccc\JJJ	.	32ccc\JJJ)	.	.	.
=9	=9	=9	=9	=9	=9	=9	=9	=9	=9
!	!	!	!	!LO:TUP:a:problem=klamra łukowa	!	!	!	!LO:N:vis=0	!
8G\L	.	8g\L	.	24bb\LL	.	24bb\LL	.	1.r	.
.	.	.	.	24ccc\	.	24ccc\	.	.	.
.	.	.	.	24ddd\JJ)	.	24ddd\JJ	.	.	.
!	!	!	!	!LO:TUP:a:problem=klamra łukowa	!	!	!	!	!
8C\	.	8e\J	.	24ee\LL	.	24ee\LL	.	.	.
.	.	.	.	24ccc\	.	24ccc\	.	.	.
.	.	.	.	24aa\JJ	.	24aa\JJ	.	.	.
8D\	.	4d\	.	4gg\	.	4gg\	.	.	.
8D\	.	.	.	.	.	.	.	.	.
8D\	.	4c\	.	4aaM>\	.	4aaM>\	.	.	.
8D\J	.	.	.	.	.	.	.	.	.
!LO:LB:g=original	!	!	!	!	!	!	!	!	!
=10	=10	=10	=10	=10	=10	=10	=10	=10	=10
8G\L	.	8B/	.	8gg\	.	8gg\	.	.	.
!	!	!	!LO:HP:a:i:t=Po:	!	!	!	!	!	!
!	!	!	!LO:DY:a:rj	!	!	!	!	!	!
8B\	.	8d\L	p	8g/L	.	8g/L	.	.	.
!	!LO:HP:i:b:t=po:	!	!	!	!	!	!	!	!
!	!LO:DY:b	!	!	!	!	!	!	!	!
!	!	!	!	!	!LO:HP:b:i:t=po:	!	!LO:HP:b:i:t=po:	!	!
!	!	!	!	!	!LO:DY:b:rj	!	!LO:DY:b	!	!
8A\	p	8c\	.	8f#/	p	8f#/	p	.	.
8G\	.	8B\	.	8g/J	.	8g/J	.	.	.
8F#\	.	8A\	.	(<8.a/L	.	8.a/L	.	.	.
8D\J	.	8f#\J	.	.	.	.	.	.	.
.	.	.	.	32b/LL	.	(<32b/LL	.	.	.
.	.	.	.	32cc/JJJ)	.	32cc/JJJ)	.	.	.
!	!	!LO:LB:g=original	!	!	!	!	!	!	!
=11	=11	=11	=11	=11	=11	=11	=11	=11	=11
!	!	!	!LO:HP:b:i:t=for.	!	!	!	!	!	!
!	!	!	!LO:DY:b	!LO:TUP:a:problem=klamra łukowa	!	!LO:TUP:a:problem=klamra łukowa	!	!	!
8G\L	.	8g\L	f	24b\LL	.	24b\LL	.	2.r	.
.	.	.	.	24cc\	.	24cc\	.	.	.
!	!	!	!	!	!LO:HP:b:i:t=for.	!	!LO:HP:b:i:t=for.	!	!
!	!	!	!	!	!LO:DY:b:rj	!	!LO:DY:b	!	!
.	.	.	.	24dd\JJ	f	24dd\JJ	f	.	.
!	!	!	!	!LO:TUP:a:problem=klamra łukowa	!	!LO:TUP:a:problem=klamra łukowa	!	!	!
8C\J	.	8g\J	.	24ee\LL	.	24ee\LL	.	.	.
.	.	.	.	24ff#X\	.	24ff#X\	.	.	.
.	.	.	.	24gg\JJ	.	24gg\JJ	.	.	.
4D\	.	4g\	.	4g/	.	4g/	.	.	.
4DD/	.	4f#\	.	4aM>/	.	4aM>/	.	.	.
=12	=12	=12	=12	=12	=12	=12	=12	=12	=12
!LO:TX:a:t=P:problem=mixed beam	!	!	!	!	!	!	!	!	!
8GG/L	.	4g\	.	4g/	.	4g/	.	4r	.
8G\	.	.	.	.	.	.	.	.	.
!	!	!	!	!	!LO:HP:b:i:t=po:	!	!LO:HP:b:i:t=po:	!	!
!	!	!	!	!	!LO:DY:b	!	!LO:DY:b	!	!
8GG/	.	8G/L	.	8b/L	p	4.dd\	p	4.dd\	Ah
!	!	!	!LO:HP:b:i:t=po:	!	!	!	!	!	!
!	!	!	!LO:DY:b	!	!	!	!	!	!
8AA/	.	8A/	p	8f#/	.	.	.	.	.
8BB/	.	8B/	.	8g/	.	.	.	.	.
8C/J	.	8c/J	.	8cc/J	.	8ee\	.	8ee\	per-
!	!	!	!	!	!	!	!	!LO:TX:t=[segno]	!
=13	=13	=13	=13	=13	=13	=13	=13	=13	=13
!LO:TX:t=[segno]	!	!LO:TX:t=[segno]	!	!LO:TX:t=[segno]	!	!LO:TX:t=[segno]	!	!	!
!LO:TX:a:t=P:problem= podwójne segno za kreską taktową	!	!LO:TX:a:t=P:problem= podwójne segno za kreską taktową	!	!LO:TX:a:t=P:problem= podwójne segno za kreską taktową	!	!LO:TX:a:t=P:problem= podwójne segno za kreską taktową	!	!LO:TX:a:t=P:problem= podwójne segno na kresce taktowej	!
.	.	.	.	8qqb/	.	8qqgg/	.	8qqg/	.
8D\L	.	8d\L	.	4.a/	.	4.ff#\	.	4.f#\	-dona
8d\	.	8d\J	.	.	.	.	.	.	.
8c\	.	8c/L	.	.	.	.	.	.	.
8B\	.	8B/	.	(>8dd\L	.	(>8gg\L	.	8g\	al
8A\	.	8A/	.	8cc\	.	8aa\	.	8a\	pri-
8G\J	.	8G/J	.	8b\J)	.	8bb\J)	.	8b\	-mo
=14	=14	=14	=14	=14	=14	=14	=14	=14	=14
8F#\L	.	8f#\L	.	8a/L	.	4ccc\	.	8.a\L	af-
8D\	.	8d\J	.	8f#/J	.	.	.	.	.
.	.	.	.	.	.	.	.	32b\LL	-fet-
.	.	.	.	.	.	.	.	32cc\JJJ	.
!	!	!LO:TX:a:t=P:problem=mixed beam	!	!	!	!	!	!	!
8G\	.	8g\L	.	(<8g/L	.	(>8bb\L	.	8b\	-to
8B\	.	8B/	.	8dd/	.	8gg\	.	8dd\	al
8A\	.	8A/	.	8cc/	.	8ff#\	.	8f#/	pri-
8G\J	.	8G/J	.	8b/J)	.	8gg\J)	.	8g/	-mo
=15	=15	=15	=15	=15	=15	=15	=15	=15	=15
!LO:TX:a:t=P:problem=mixed beam	!	!	!	!	!	!	!	!	!
8F#\L	.	8f#\L	.	(<8a/L	.	4ccc\	.	8.a\L	af-
8D\	.	8d\	.	8f#/)	.	.	.	.	.
.	.	.	.	.	.	.	.	32b\LL	-fet-
.	.	.	.	.	.	.	.	32cc\JJJ	.
8G\	.	8g\	.	(<8g/	.	8bb\L	.	4b\	-to
8GG/	.	8d\J	.	8b/)	.	8gg\	.	.	.
8G\	.	8B/L	.	8dd/	.	8gg\	.	8dd\	que-
8B\J	.	8G/J	.	8dd/J	.	8gg\J	.	8g/	-st(o)
!	!	!	!	!LO:LB:g=original	!	!	!	!	!
=16	=16	=16	=16	=16	=16	=16	=16	=16	=16
!LO:TX:a:t=P:problem=mixed beam	!	!LO:TX:a:t=P:problem=mixed beam	!	!	!	!	!	!	!
8c\L	.	8g\L	.	8ee\L	.	8gg\L	.	4.ee\	ac-
8C/	.	8g\	.	8ee\	.	8cc\	.	.	.
8C/	.	8G/	.	8ee\	.	8cc\	.	.	.
.	.	.	.	.	.	.	.	8qqdd/	.
8C/	.	8G/	.	8ee\	.	8cc\	.	8cc\	-cen-
.	.	.	.	.	.	.	.	8qqb/	.
8C/	.	8c/	.	8ee\	.	8cc\	.	8a\	-to
8C/J	.	8c/J	.	8ee\J	.	8cc\J	.	8g\	Sconsi-
=17	=17	=17	=17	=17	=17	=17	=17	=17	=17
.	.	.	.	.	.	.	.	8qqg/	.
4D\	.	4d\	.	4ff#\	.	4cc\	.	4f#\	-glia-
4E\	.	4e\	.	4gg\	.	4b\	.	4g\	-to
4r	.	4r	.	4r	.	4r	.	4r	.
!	!	!	!	!	!	!LO:LB:g=original	!	!LO:LB:g=original	!
=18	=18	=18	=18	=18	=18	=18	=18	=18	=18
*2\right	*	*2\right	*	*	*	*	*	*	*
2E\	.	2b\	.	8r	.	8r	.	4gg\	col-
.	.	.	.	(>8gg\L	.	8bb\L	.	.	.
.	.	.	.	8ff#\	.	8aa\	.	8ff#\L	.
.	.	.	.	8ee\	.	8gg\	.	8ee\J	.
4F#\	.	4a\	.	8dd\)	.	8ff#\	.	8dd\L	-pa
.	.	.	.	8cc\J	.	8ee\J	.	8cc\J	.
=19	=19	=19	=19	=19	=19	=19	=19	=19	=19
.	.	.	.	8qqcc/	.	8qqee/	.	8qqcc/	.
!LO:TX:a:t=P:problem=mixed beam	!	!	!	!	!	!	!	!	!
8G\L	.	4.d\	.	4.b\	.	4.dd\	.	4.b\	fu
8GG/	.	.	.	.	.	.	.	.	.
8GG/	.	.	.	.	.	.	.	.	.
8G\J	.	8d\L	.	(<8b/L	.	(>8dd\L	.	8dd\	del
!LO:LB:g=original	!	!	!	!	!	!	!	!	!
8C/L	.	8e\	.	8a/	.	8cc\	.	8cc\	la(b)-
8C#X/J	.	8e\J	.	8g/J)	.	8b\J)	.	8b\	-bro
=20	=20	=20	=20	=20	=20	=20	=20	=20	=20
.	.	.	.	.	.	.	.	8qqcc/	.
!	!	!	!	!LO:TX:a:t=P:problem=mixed beam	!	!LO:TX:a:t=P:problem=mixed beam	!	!	!
8D\L	.	8d\L	.	8g/L	.	8b/L	.	4b\	usa-
8D\	.	8d\	.	8g/	.	8b/	.	.	.
8D\	.	8d\	.	8f#/	.	8a/	.	4a\	-to
8D\	.	8d\	.	8f#/	.	8aa\	.	.	.
8D\	.	8f#\	.	8dd\	.	8aa\	.	8a\	a
!	!	!	!	!	!	!	!	!	!LO:SIC:o=chimar-
8D\J	.	8f#\J	.	8dd\J	.	8aa\J	.	8dd\	chia-
=21	=21	=21	=21	=21	=21	=21	=21	=21	=21
.	.	.	.	.	.	.	.	8qqa/	.
8E\L	.	8e\L	.	8dd\L	.	8gg\L	.	4.g\	-ti
8E\	.	8e\	.	8dd\	.	8gg\	.	.	.
8E\	.	8e\	.	8dd\	.	8gg\	.	.	.
8E\J	.	8e\	.	8dd\	.	8gg\	.	8ee\	o-
8AA/L	.	8e\	.	8cc#X\	.	8gg\	.	8ee\	-gnor
8AA/J	.	8e\J	.	8cc#\J	.	8gg\J	.	8a\	co-
!	!	!LO:LB:g=original	!	!	!	!	!	!	!
=22	=22	=22	=22	=22	=22	=22	=22	=22	=22
.	.	.	.	.	.	.	.	8qqg/	.
8D\L	.	8d\L	.	8a/L	.	8gg\L	.	2f#/	-si
8D\	.	8d\	.	8a/	.	8ff#\	.	.	.
8D\	.	8d\	.	8a/	.	8ff#\	.	.	.
8D\	.	8d\	.	8a/	.	8ff#\	.	.	.
8D\	.	8d\	.	8a/	.	8ff#\	.	8a\	à
8D\J	.	8d\J	.	8a/J	.	8ff#\J	.	8cc\	chia-
=23	=23	=23	=23	=23	=23	=23	=23	=23	=23
!	!	!	!	!	!	!	!	!LO:SIC:o=8qqcc/	!
.	.	.	.	.	.	.	.	-mar-	.
8G\L	.	(>8d'>\L	.	8r	.	8r	.	4.b\	-mar-
8G\	.	8d'>\	.	(>8b'>\L	.	(>8gg'>\L	.	.	.
8G\	.	8d'>\	.	8b'>\	.	8gg'>\	.	.	.
8G\	.	8d'>\	.	8b'>\	.	8gg'>\	.	8g\L	.
8G\	.	8d'>\	.	8b'>\	.	8gg'>\	.	8b\	.
8G\J	.	8d'>\J)	.	8b'>\J)	.	8gg'>\J)	.	8dd\J	.
=24	=24	=24	=24	=24	=24	=24	=24	=24	=24
.	.	.	.	.	.	.	.	8qqdd/	.
8G\L	.	(>8e'>\L	.	8r	.	8r	.	4.cc#X\	.
8G\	.	8e'>\	.	(>8cc#X'>\L	.	(>8aa'>\L	.	.	.
8G\	.	8e'>\	.	8cc#'>\	.	8aa'>\	.	.	.
8G\	.	8e'>\	.	8cc#'>\	.	8aa'>\	.	(>8a\L	.
8G\	.	8e'>\	.	8cc#'>\	.	8aa'>\	.	8cc#\	.
8G\J	.	8e'>\J)	.	8cc#'>\J)	.	8aa'>\J)	.	8ee\J)	.
=25	=25	=25	=25	=25	=25	=25	=25	=25	=25
8F#\L	.	(>8a'>\L	.	(>8dd'>\L	.	(>8aa'>\L	.	4dd'>\	.
8F#\	.	8a'>\	.	8dd'>\	.	8aa'>\	.	.	.
8Fn\	.	8a'>\	.	8dd'>\	.	8aa'>\	.	4dd'>\	.
8F\	.	8a'>\	.	8dd'>\	.	8aa'>\	.	.	.
8F\	.	8a'>\	.	8dd'>\	.	8aa'>\	.	4dd'>\	.
8F\J	.	8a'>\J)	.	8dd'>\J)	.	8aa'>\J)	.	.	.
!	!	!	!	!LO:LB:g=original	!	!	!	!LO:LB:g=original	!
=26	=26	=26	=26	=26	=26	=26	=26	=26	=26
8E\L	.	8b\L	.	(>8dd'>\L	.	(>8gg#X'>\L	.	4.dd\	.
8E\	.	8b\	.	8dd'>\	.	8gg#'>\	.	.	.
8E\	.	8b\	.	8dd'>\	.	8gg#'>\	.	.	.
8E\	.	8e\	.	8dd'>\	.	8gg#'>\	.	8b\L	.
8D\	.	8e\	.	8b'>\	.	8bb'>\	.	8g\	.
8D\J	.	8e\J	.	8g#X'>\J)	.	8bb'>\J)	.	8e#X\J	.
=27	=27	=27	=27	=27	=27	=27	=27	=27	=27
!	!	!	!	!LO:TX:a:t=P:problem=mixed beam	!	!	!	!	!
8C#X/L	.	8e\L	.	(<8a'</L	.	8r	.	8a\L	.
8C#/	.	8e\	.	8a'</	.	(>8ee'>\L	.	8cc#X\J	.
8C#/	.	8e\	.	8a'</	.	8ee'>\	.	4ee\	.
8C#/	.	8A\	.	8a'</)	.	8ee'>\	.	.	.
8C#/	.	8A\	.	8ee'>\	.	8ggn'>\	.	4gM>\	.
8C#/J	.	8A\J	.	8ee'>\J	.	8gg'>\J)	.	.	.
!LO:LB:g=original	!	!	!	!	!	!	!	!	!
=28	=28	=28	=28	=28	=28	=28	=28	=28	=28
4D\	.	4A/	.	(>8dd\L	.	(>8ff#\L	.	(>8f#\L	.
.	.	.	.	8ee\	.	8gg\	.	8g\	.
4r	.	4r	.	8ff#\	.	8aa\	.	8a\	.
.	.	.	.	8gg\	.	8bb\	.	8b\)	.
8r	.	8r	.	8ee\	.	8ccc#X\	.	8cc#X\	.
8F#\	.	8a\	.	8dd\J)	.	8ddd\J)	.	8dd\J	.
!	!	!	!	!	!	!LO:LB:g=original	!	!	!
=29	=29	=29	=29	=29	=29	=29	=29	=29	=29
!	!	!	!	!	!	!	!LO:HP:b:i:t=po:	!	!
!	!	!	!	!	!	!	!LO:DY:b	!	!
8G\L	.	8g\L	.	8r	.	8r	p	8b\	-ti
!	!	!	!	!	!LO:HP:b:i:t=po:	!	!	!	!
!	!	!	!	!	!LO:DY:b:rj	!	!	!	!
8E\J	.	8b\J	.	8ee\	p	8gg\	.	8ee\	o-
!	!	!	!	!	!	!	!LO:HP:b:i:t=for.	!	!
!	!	!	!	!	!	!	!LO:DY:b	!	!
.	.	.	.	8qqdd/	.	8qqff#/	f	8qqdd/	.
*	*	*	*	*2\right	*	*2\right	*	*	*
!	!	!	!	!	!LO:HP:b:i:t=For.	!	!	!	!
!	!	!	!	!	!LO:DY:b:rj	!	!	!	!
4A\	.	4a\	.	2cc#X\	f	2ee\	.	4.cc#Xm>\	-gnòr
4AA/	.	4a\	.	.	.	.	.	.	.
.	.	.	.	.	.	.	.	8dd\	co-
=30	=30	=30	=30	=30	=30	=30	=30	=30	=30
*	*	*	*	*	*	*	*	*2\right	*
!	!	!	!	!	!	!	!LO:HP:b:i:t=fortisſ:	!	!
!	!	!	!	!	!	!	!LO:DY:b:rj	!	!
8D\L	.	8f#\L	.	8dd\L	.	8dd\L	ff	2dd\	-ſi
8f#\	.	8d\	.	8aa\	.	8aa\	.	.	.
8e\	.	8g\	.	8cc#X\	.	8cc#X\	.	.	.
8d\	.	8f#\	.	8cc#\J	.	8dd\J	.	.	.
8c#X\	.	8e\	.	(>8.ee\L	.	(>8.ee\L	.	4r	.
8A\J	.	8c#X\J	.	.	.	.	.	.	.
.	.	.	.	32ff#\LL	.	32ff#\LL)	.	.	.
.	.	.	.	32gg\JJJ)	.	32gg\JJJ	.	.	.
=31	=31	=31	=31	=31	=31	=31	=31	=31	=31
!	!	!	!	!	!	!	!	!LO:N:vis=0	!
8d\L	.	8d\L	.	8ff#\L	.	8ff#\L	.	1.r	.
8f#\	.	8a\	.	32aa\KL	.	32aa\KL	.	.	.
.	.	.	.	16.dd\JJ	.	16.dd\JJ	.	.	.
8e\	.	8g\	.	(>32cc#X\KLL	.	(>32cc#X\KLL	.	.	.
.	.	.	.	16.a\JJ)	.	16.a\JJ)	.	.	.
8d\	.	8f#\	.	(>32dd\KLL	.	(>32dd\KLL	.	.	.
.	.	.	.	16.a\JJ)	.	16.a\JJ)	.	.	.
!LO:TX:a:t=P:problem=# above	!	!	!	!	!	!	!	!	!
8c#X\	.	8e\	.	(>8.ee\L	.	(>8.ee\L	.	.	.
8A\J	.	8c#X\J	.	.	.	.	.	.	.
.	.	.	.	32ff#\LL	.	32ff#\LL)	.	.	.
.	.	.	.	32gg\JJJ)	.	32gg\JJJ	.	.	.
=32	=32	=32	=32	=32	=32	=32	=32	=32	=32
!	!	!	!	!LO:TUP:a:problem=klamra łukowa	!	!LO:TUP:a:problem=klamra łukowa	!	!	!
8d\L	.	8d\L	.	24ff#\LL	.	24ff#\LL	.	.	.
.	.	.	.	24gg\	.	24gg\	.	.	.
.	.	.	.	24aa\JJ	.	24aa\JJ	.	.	.
!	!	!	!	!LO:TUP:a:problem=klamra łukowa	!	!LO:TUP:a:problem=klamra łukowa	!	!	!
8G\J	.	8d\J	.	24bb\LL	.	24bb\LL	.	.	.
.	.	.	.	24ccc#X\	.	24ccc#X\	.	.	.
.	.	.	.	24ddd\JJ	.	24ddd\JJ	.	.	.
4A\	.	4d\	.	4dd\	.	4dd\	.	.	.
4AA/	.	4c#X\	.	4eeM>\	.	4eeM>\	.	.	.
!	!	!LO:LB:g=original	!	!	!	!	!	!	!
=33	=33	=33	=33	=33	=33	=33	=33	=33	=33
8D\L	.	8d\L	.	8dd\	.	8dd\	.	4r	.
!	!	!	!	!	!LO:HP:b:i:t=po:	!	!LO:HP:b:i:t=po:	!	!
!	!	!	!	!	!LO:DY:b	!	!LO:DY:b	!	!
8D\	.	8d\	.	8ffn\L	p	8aa\L	p	.	.
8D\	.	8d\	.	8ff\	.	8aa\	.	4.dd\	ah
!	!	!	!LO:DY:b	!	!	!	!	!	!
!	!	!	!LO:HP:b:i:t=po:	!	!	!	!	!	!
8D\	.	8fn\	p	8dd\	.	8aa\	.	.	.
8D\	.	8f\	.	8dd\	.	8aa\	.	.	.
.	.	.	.	.	.	.	.	8qqcc/	.
8D\J	.	8f\J	.	8dd\J	.	8aa\J	.	8b\	per-
!	!	!	!	!LO:LB:g=original	!	!	!	!	!
=34	=34	=34	=34	=34	=34	=34	=34	=34	=34
.	.	.	.	.	.	8qqaa/	.	8qqa/	-do-
8E\L	.	8e\L	.	8dd\L	.	4.gg#X\	.	4.g#X\	-na
8E\	.	8e\	.	8dd\	.	.	.	.	.
8E\	.	8e\	.	8dd\	.	.	.	.	.
8E\	.	8e\	.	8ccn\J	.	(>8aa\L	.	8a\	al
8E\	.	8e\	.	8g#X/L	.	8bb\	.	8b\	pri-
8E\J	.	8e\J	.	8a/J	.	8cccn\J)	.	8cc\	-mo
=35	=35	=35	=35	=35	=35	=35	=35	=35	=35
!LO:TX:a:t=P:problem=mixed beam	!	!	!	!	!	!	!	!	!
8E\L	.	8e\L	.	8b\L	.	(>8.gg#X\L	.	8.b\L	af-
8E\	.	8e\	.	8b\	.	.	.	.	.
.	.	.	.	.	.	32aa\LL	.	32cc\LL	-fet-
.	.	.	.	.	.	32bb\JJJ)	.	32dd\JJJ	.
8A\	.	8e\	.	8cc\	.	8aa\L	.	4cc\	-to
8A\	.	8e\	.	8cc\	.	8aa\	.	.	.
8C/	.	8e\	.	8ee\	.	8aa\	.	8ee\	que-
8C/J	.	8a\J	.	8ee\J	.	8aa\J	.	8e/	-sto
!	!	!	!	!	!	!	!	!LO:LB:g=original	!
=36	=36	=36	=36	=36	=36	=36	=36	=36-	=36
.	.	.	.	.	.	.	.	8qqg/	.
8D\L	.	4.a\	.	2.dd\	.	8aa\L	.	4.f#\	ac-
8D\	.	.	.	.	.	8ddd\J	.	.	.
8D\	.	.	.	.	.	2dd\	.	.	.
8E\	.	8g\L	.	.	.	.	.	8g\	-cen-
8F#\	.	8f#X\	.	.	.	.	.	8a\	-to
8G\J	.	8g\J	.	.	.	.	.	8b\	scon-
!LO:LB:g=original	!	!	!	!	!	!	!	!	!
=37	=37	=37	=37	=37	=37	=37	=37	=37	=37
!	!	!	!LO:DY:b	!	!	!	!	!	!
!	!	!	!LO:HP:b:i:t=For.	!	!	!	!	!	!
4.D\	.	4g\	f	4d/	.	4d/	.	4b\	-ſiglia-
.	.	4f#\	.	(>4ddd\	.	(>4ddd\	.	4a\	-to
8d\L	.	.	.	.	.	.	.	.	.
.	.	.	.	8qqgg/	.	8qqgg/	.	.	.
8c\	.	4a\	.	4ff#\)	.	4ff#\)	.	4r	.
8B\J	.	.	.	.	.	.	.	.	.
!	!	!	!	!	!	!LO:LB:g=original	!	!	!
=38	=38	=38	=38	=38	=38	=38	=38	=38	=38
8B\L	.	4.d\	.	4gg\	.	4gg\	.	4r	.
8d\	.	.	.	.	.	.	.	.	.
8B\	.	.	.	(>4dd\	.	(>4dd\	.	4dd\	col-
!	!	!	!LO:DY:b	!	!	!	!	!	!
!	!	!	!LO:HP:b:i:t=po:	!	!	!	!	!	!
8G\	.	8B/L	p	.	.	.	.	.	.
.	.	.	.	8qqg/	.	(<8qqg/	.	8qqg/	.
8A\	.	8c/	.	4f#/	.	4f#/)	.	4f#/	-pa
8C\J	.	8A/J	.	.	.	.	.	.	.
=39	=39	=39	=39	=39	=39	=39	=39	=39	=39
!LO:TX:a:t=P:problem=mixed beam	!	!	!	!	!	!	!	!	!
.	.	.	.	8qqf#/	.	8qqf#/	.	8qqf#/	.
(<8BB/L	.	2.d\	.	4.g/	.	4.g/	.	4.g\	fu
8D/	.	.	.	.	.	.	.	.	.
8BB/	.	.	.	.	.	.	.	.	.
8GG/)	.	.	.	8b/L	.	8b/L	.	8b\	del
(>8F#\	.	.	.	8a/)	.	8a/)	.	8a\	la(b)-
8D\J)	.	.	.	8cc/J	.	8cc/J	.	8cc\	-bro
=40	=40	=40	=40	=40	=40	=40	=40	=40	=40
.	.	.	.	8qqcc/	.	(<8qqcc/	.	8qqcc/	.
(>8G\L	.	4.d\	.	4.b\	.	4.b\)	.	4.b\	usato
8D\	.	.	.	.	.	.	.	.	.
8G\)	.	.	.	.	.	.	.	.	.
8B\	.	8d\L	.	8dd\L	.	8dd\L	.	8dd\	a
8A\	.	8e\	.	8cc\	.	8cc\	.	8cc\	chia-
8c\J	.	8f#\J	.	8ee\J	.	8ee\J	.	8ee\	-mar-
=41	=41	=41	=41	=41	=41	=41	=41	=41	=41
8B\L	.	8g\L	.	8dd\L	.	8dd\L	.	8dd\	-ti
8G\	.	8b\J	.	8gg\J	.	8gg\J	.	8gg\	o-
8d\	.	4d\	.	4g/	.	4b/	.	4g\	-gnòr
8d\	.	.	.	.	.	.	.	.	.
8D\	.	4c\	.	4f#/	.	4a/	.	4a\	co-
8D\J	.	.	.	.	.	.	.	.	.
=42	=42	=42	=42	=42	=42	=42	=42	=42	=42
!	!	!	!	!LO:TX:a:t=P:problem=mixed beam	!	!LO:TX:a:t=P:problem=mixed beam	!	!	!
!	!	!	!	!	!LO:HP:b:i:t=po:	!	!	!	!
!	!	!	!	!	!LO:DY:b	!	!	!	!
8E\L	.	8B/L	.	8g/L	p	8g/L	.	8.g/	-ſi
!	!	!	!	!	!	!	!LO:HP:b:i:t=po:	!	!
!	!	!	!	!	!	!	!LO:DY:b	!	!
8C\J	.	8c/	.	8ee\J	.	8gg\J	p	.	.
.	.	.	.	.	.	.	.	16ee\	per-
!	!	!	!	!	!LO:HP:b:i:t=for.	!	!	!	!
!	!	!	!	!	!LO:DY:b	!	!	!	!
.	.	.	.	8qqdd/	f	.	.	8qqdd/	.
8AA/L	.	8A/	.	2cc\	.	4gg\	.	2cc\	-do-
8AA/	.	8A/	.	.	.	.	.	.	.
!	!	!	!	!	!	!	!LO:HP:b:i:t=for.	!	!
!	!	!	!	!	!	!	!LO:DY:b	!	!
8D/	.	8d/	.	.	.	4ff#m>\	f	.	.
8D/J	.	8d/J	.	.	.	.	.	.	.
=43	=43	=43	=43	=43	=43	=43	=43	=43	=43
!	!	!LO:TX:a:t=P:problem=mixed beam	!	!	!	!	!	!	!
4GG/	.	8G/L	.	4b/	.	8gg\L	.	8b\	-na
!	!	!	!	!	!	!	!LO:HP:b:i:t=po:	!	!
!	!	!	!	!	!	!	!LO:DY:b	!	!
.	.	8g\J	.	.	.	8ee\J	p	8ee\	per-
!	!	!	!	!	!LO:HP:b:i:t=po:	!	!	!	!
!	!	!	!	!	!LO:DY:b	!	!	!LO:LB:g=original	!
4C/	.	4e\	.	4a/	p	4cc\	.	(>4a\	-do-
4C#X/	.	4c#X\	.	4g/	.	4b\	.	4g\)	.
=44	=44	=44	=44	=44	=44	=44	=44	=44	=44
4D\	.	4d\	.	4f#/	.	4a/	.	4f#/	-na
4r	.	4r	.	4r	.	2r	.	4dd\	que-
4r	.	4r	.	4r	.	.	.	4dd\	-ſto
!	!	!LO:LB:g=original	!	!LO:LB:g=original	!	!	!	!	!
=45	=45	=45	=45	=45	=45	=45	=45	=45	=45
8r	.	8r	.	8r	.	8r	.	2.dd\	ac-
!	!	!LO:TX:a:t=P:problem=mixed beam	!	!	!	!	!	!	!
8B\L	.	8d/L	.	8gg\L	.	8gg\L	.	.	.
8A\	.	8c/	.	8ff#\	.	8ff#\	.	.	.
8G\	.	8B/	.	8gg\J	.	8gg\J	.	.	.
8F#\	.	8A/	.	(>8.aa\L	.	(>8.aa\L	.	.	.
8D\J	.	8f#\J	.	.	.	.	.	.	.
.	.	.	.	32bb\LL	.	32bb\LL	.	.	.
.	.	.	.	32ccc\JJJ)	.	32ccc\JJJ)	.	.	.
!LO:LB:g=original	!	!	!	!	!	!	!	!	!
=46	=46	=46	=46	=46	=46	=46	=46	=46	=46
8G\L	.	8g\L	.	8bb\L	.	8bb\L	.	2.dd\	-cen-
8B\	.	8d\	.	(>32ddd\KL	.	(>32ddd\KL	.	.	.
.	.	.	.	16.dd\JJ)	.	16.dd\JJ)	.	.	.
8A\	.	8c\	.	(>32ff#\KLL	.	(>32ff#\KLL	.	.	.
.	.	.	.	16.dd\JJ)	.	16.dd\JJ)	.	.	.
8G\	.	8B\	.	(>32gg\KLL	.	(>32gg\KLL	.	.	.
.	.	.	.	16.dd\JJ)	.	16.dd\JJ)	.	.	.
8F#\	.	8A\	.	(>8.aa\L	.	(>8.aa\L	.	.	.
8D\J	.	8f#\J	.	.	.	.	.	.	.
.	.	.	.	32bb\LL	.	32bb\LL	.	.	.
.	.	.	.	32ccc\JJJ)	.	32ccc\JJJ)	.	.	.
=47	=47	=47	=47	=47	=47	=47	=47	=47	=47
8G\L	.	8g\L	.	8bb\L	.	8bb\L	.	8dd\	-to
8G\	.	8g\	.	8ee\	.	8bb\	.	4ee\	scon-
8C\	.	8c\	.	8ee\	.	8bb\	.	.	.
.	.	.	.	.	.	.	.	8qqdd/	.
8C\	.	8c\	.	8ee\	.	8aa\	.	8cc\	-ſi-
.	.	.	.	.	.	.	.	8qqb/	.
8C\	.	8e\	.	8aa\	.	8ccc\	.	8a\	-glia-
8C\J	.	8e\J	.	8gg\J	.	8bb\J	.	8g\	.
!	!	!	!	!	!	!LO:LB:g=original	!	!	!
=48	=48	=48	=48	=48	=48	=48	=48	=48	=48
.	.	.	.	.	.	.	.	8qqg/	.
8D\L	.	8d\L	.	8gg'>\L	.	8bb\L	.	4.f#/	.
8D\	.	8d\	.	(>8ff#'>\	.	(>8aa'>\	.	.	.
8D\	.	8d\	.	8ff#'>\	.	8aa'>\	.	.	.
8D\	.	8d\	.	8ff#'>\	.	8aa'>\	.	8d/L	.
8D\	.	8d\	.	8ff#'>\	.	8aa'>\	.	8f#/	.
8D\J	.	8d\J	.	8ff#'>\J)	.	8aa'>\J)	.	8a/J	.
=49	=49	=49	=49	=49	=49	=49	=49	=49	=49
.	.	.	.	.	.	.	.	8qqa/	.
8D\L	.	8d\L	.	8r>	.	8r	.	4.g/	.
8D\	.	8d\	.	(>8gg'>\L	.	(>8bb'>\L	.	.	.
8D\	.	8d\	.	8gg'>\	.	8bb'>\	.	.	.
8D\	.	8d\	.	8gg'>\	.	8bb'>\	.	8d/L	.
8D\	.	8d\	.	8gg'>\	.	8bb'>\	.	8g/	.
8D\J	.	8d\J	.	8gg'>\J)	.	8bb'>\J)	.	8b/J	.
=50	=50	=50	=50	=50	=50	=50	=50	=50	=50
.	.	.	.	.	.	.	.	8qqb/	.
8D\L	.	8d\L	.	8r	.	8r	.	4.a\	.
8D\	.	8d\	.	(>8aa'>\L	.	(>8ccc'>\L	.	.	.
8D\	.	8d\	.	8aa'>\	.	8ccc'>\	.	.	.
8D\	.	8d\	.	8aa'>\	.	8ccc'>\	.	(>8f#\L	.
8D\	.	8d\	.	8aa'>\	.	8ccc'>\	.	8a\	.
8D\J	.	8d\J	.	8aa'>\J)	.	8ccc'>\J)	.	8cc\J)	.
=51	=51	=51	=51	=51	=51	=51	=51	=51	=51
.	.	.	.	.	.	.	.	8qqcc/	.
8D\L	.	8d\L	.	8r	.	8r	.	4.b\	.
8D\	.	8d\	.	(>8gg'>\L	.	(>8bb'>\L	.	.	.
8D\	.	8d\	.	8gg'>\	.	8bb'>\	.	.	.
8D\	.	8d\	.	8gg'>\	.	8bb'>\	.	(>8dd\L	.
8D\	.	8d\	.	8gg'>\	.	8bb'>\	.	8b\	.
8D\J	.	8d\J	.	8gg'>\J)	.	8bb'>\J)	.	8g\J)	.
=52	=52	=52	=52	=52	=52	=52	=52	=52	=52
.	.	.	.	8qqgg/	.	8qqbb/	.	8qqg/	.
4.D\	.	4d\	.	4ff#\	.	4aa\	.	8.f#/L	.
.	.	.	.	.	.	.	.	16e/Jk	.
!	!	!	!LO:DY:b	!	!	!	!	!	!
!	!	!	!LO:HP:b:i:t=for.	!	!	!	!	!	!
.	.	4f#\	f	4ddd\	.	4ddd\	.	4d/	-to
8d\L	.	.	.	.	.	.	.	.	.
.	.	.	.	8qqgg/	.	8qqgg/	.	.	.
8c\	.	4a\	.	4ff#\	.	4ff#\	.	4r	.
8A\J	.	.	.	.	.	.	.	.	.
!	!	!	!	!	!	!	!	!LO:LB:g=original	!
=53	=53	=53	=53	=53	=53	=53	=53	=53	=53
8B\	.	4.d\	.	4gg\	.	4gg\	.	4r	.
8d\L	.	.	.	.	.	.	.	.	.
!	!	!	!	!	!	!	!LO:HP:b:i:t=po:	!	!
!	!	!	!	!	!	!	!LO:DY:b	!	!
8B\	.	.	.	4dd\	.	4dd\	p	4dd\	Col-
8G\	.	8B/L	.	.	.	.	.	.	.
.	.	.	.	(<8qqg/	.	8qqg/	.	8qqg/	.
8A\	.	8c/	.	4f#/)	.	4f#/	.	4f#/	-pa
8C\J	.	8A/J	.	.	.	.	.	.	.
=54	=54	=54	=54	=54	=54	=54	=54	=54	=54
.	.	.	.	8qqf#/	.	8qqf#/	.	8qqf#/	fu
!LO:TX:a:t=P:problem=mixed beam	!	!	!	!	!	!	!	!	!
8BB/L	.	[>2.d\	.	4.g/	.	4.g/	.	4.g\	del
8D/	.	.	.	.	.	.	.	.	.
8BB/	.	.	.	.	.	.	.	.	.
8GG/	.	.	.	8b\L	.	(>8b\L	.	8b\	la(b)-
8F#\	.	.	.	8a\	.	8a\	.	8a\	-bro
8D\J	.	.	.	8cc\J	.	8cc\J)	.	8cc\	usa-
!	!	!	!	!LO:LB:g=original	!	!	!	!	!
=55	=55	=55	=55	=55	=55	=55	=55	=55	=55
.	.	.	.	8qqcc/	.	8qqcc/	.	8qqcc/	.
8G\L	.	4.d\]	.	4.b\	.	4.b\	.	4.b\	-to
8D\	.	.	.	.	.	.	.	.	.
8G\	.	.	.	.	.	.	.	.	.
8B\	.	8d\L	.	8dd\L	.	8dd\L	.	8dd\	à
8A\	.	8e\	.	8cc\	.	8cc\	.	8cc\	chia-
8c\J	.	8f#\J	.	8ee\J	.	8ee\J	.	8ee\	-mar-
!LO:LB:g=original	!	!	!	!	!	!	!	!	!
=56	=56	=56	=56	=56	=56	=56	=56	=56	=56
8B\L	.	8a\L	.	8dd\L	.	8dd\L	.	8dd\	-ti
8G\J	.	8b\J	.	8gg\J	.	8gg\J	.	8gg\	o-
!	!	!LO:LB:g=original	!	!	!	!	!	!	!
*	*	*	*	*^	*	*	*	*	*
4d\	.	4d\	.	4b/	4g\	.	4b/	.	4g\	-gnòr
4D/	.	4c\	.	4a/	4f#\	.	4a/	.	4a\	co-
*	*	*	*	*v	*v	*	*	*	*	*
=57	=57	=57	=57	=57	=57	=57	=57	=57	=57
2E\	.	4.B/	.	8g/	.	8g/	.	4.g\	-si
.	.	.	.	8gg\L	.	(>8bb\L	.	.	.
.	.	.	.	8ff#\	.	8aa\	.	.	.
.	.	8b\L	.	8ee\	.	8gg\	.	8ee\L	a
4F#\	.	8a\	.	8dd\	.	8ff#\)	.	8dd\J	.
.	.	8f#\J	.	8cc\J	.	8ee\J	.	8cc\	chia-
=58	=58	=58	=58	=58	=58	=58	=58	=58	=58
8G\L	.	8f#\L	.	8b/L	.	8dd\L	.	8b\	-mar-
8C\J	.	8e\J	.	8a/J	.	8cc\J	.	16a\LL	-ti
.	.	.	.	.	.	.	.	16g\JJ	o-
2D;>\	.	2d;>\	.	4g;</	.	4b;>\	.	4g;>\	-gnòr
.	.	.	.	4f#/	.	4a\	.	4a\	co-
!	!	!	!	!	!	!LO:LB:g=original	!	!	!
=59	=59	=59	=59	=59	=59	=59	=59	=59	=59
!	!	!	!LO:DY:b	!	!	!	!	!	!
!	!	!	!LO:HP:b:i:t=for.	!	!	!	!	!	!
8G\L	.	8g\L	f	8r	.	8r	.	2g\	-ſi
!	!	!	!	!	!	!	!LO:HP:b:i:t=fortisſ.	!	!
!	!	!	!	!	!	!	!LO:DY:b	!	!
8B\	.	8dd\	.	8gg\L	.	8gg\L	ff	.	.
8A\	.	8cc\	.	8ff#\	.	8ff#\	.	.	.
8G\	.	8b\	.	8gg\J	.	8gg\J	.	.	.
8F#\	.	8a\	.	(>8.aa\L	.	(>8.aa\L	.	4r	.
8D\J	.	8f#\J	.	.	.	.	.	.	.
.	.	.	.	32bb\LL	.	32bb\LL	.	.	.
.	.	.	.	32ccc\JJJ)	.	32ccc\JJJ)	.	.	.
=60	=60	=60	=60	=60	=60	=60	=60	=60	=60
!	!	!	!	!	!	!	!	!LO:N:vis=00	!
8G\L	.	8d\L	.	8bb\L	.	8bb\L	.	0.r	.
8B\	.	8dd\	.	(>32ddd\KL	.	32ddd\KL	.	.	.
.	.	.	.	16.dd\JJ)	.	16.dd\JJ	.	.	.
8A\	.	8cc\	.	(>32ff#\KLL	.	32ff#\KLL	.	.	.
.	.	.	.	16.dd\JJ)	.	16.dd\JJ	.	.	.
8G\	.	8b\	.	(>32gg\KLL	.	32gg\KLL	.	.	.
.	.	.	.	16.dd\JJ)	.	16.dd\JJ	.	.	.
8F#\	.	8a\	.	(>8.aa\L	.	(>8.aa\L	.	.	.
8D\J	.	8f#\J	.	.	.	.	.	.	.
.	.	.	.	32bb\LL	.	32bb\LL)	.	.	.
.	.	.	.	32ccc\JJJ)	.	32ccc\JJJ	.	.	.
=61	=61	=61	=61	=61	=61	=61	=61	=61	=61
!	!	!	!	!	!	!LO:TUP:a:problem=klamra łukowa	!	!	!
8G\L	.	8g\L	.	24bb\LL	.	24bb\LL	.	.	.
.	.	.	.	24ccc\	.	24ccc\	.	.	.
.	.	.	.	24ddd\JJ	.	24ddd\JJ	.	.	.
!	!	!	!	!	!	!LO:TUP:a:problem=klamra łukowa	!	!	!
8C\	.	8e\J	.	24ee\LL	.	24ee\LL	.	.	.
.	.	.	.	24ccc\	.	24ccc\	.	.	.
.	.	.	.	24aa\JJ	.	24aa\JJ	.	.	.
8D\	.	4d\	.	4gg\	.	4gg\	.	.	.
8D\	.	.	.	.	.	.	.	.	.
8D\	.	4c\	.	4aaM>\	.	4aaM>\	.	.	.
8D\J	.	.	.	.	.	.	.	.	.
=62	=62	=62	=62	=62	=62	=62	=62	=62	=62
8G\	.	8B/	.	8gg\	.	8gg\	.	.	.
!	!	!	!LO:HP:b:i:t=po:	!	!LO:HP:b:i:t=po:	!	!LO:HP:b:i:t=po:	!	!
!	!	!	!LO:DY:b	!	!LO:DY:b	!	!LO:DY:b	!	!
8B\L	.	8d/L	p	8g/L	p	8g/L	p	.	.
8A\	.	8c/	.	8f#/	.	8f#/	.	.	.
8G\	.	8B/	.	8g/J	.	8g/J	.	.	.
8F#\	.	8A/	.	(<8.a/L	.	(<8.a/L	.	.	.
8D\J	.	8F#/J	.	.	.	.	.	.	.
.	.	.	.	32b/LL	.	32b/LL	.	.	.
.	.	.	.	32cc/JJJ)	.	32cc/JJJ)	.	.	.
!	!	!	!	!LO:LB:g=original	!	!	!	!	!
=63	=63	=63	=63	=63	=63	=63	=63	=63	=63
!	!LO:HP:i:b:t=for.	!	!	!	!	!	!	!	!
!	!LO:DY:a	!LO:TX:a:t=P:problem=mixed beam	!	!	!	!	!	!	!
!	!	!	!	!LO:TUP:a:problem=klamra łukowa	!	!LO:TUP:a:problem=klamra łukowa	!	!	!
8G\L	f	8G/L	.	24b\LL	.	24b\LL	.	.	.
.	.	.	.	24cc\	.	24cc\	.	.	.
!	!	!	!	!	!LO:DY:b	!	!	!	!
!	!	!	!	!	!LO:HP:b:i:t=for.	!	!	!	!
.	.	.	.	24dd\JJ	f	24dd\JJ	.	.	.
!	!	!	!LO:HP:b:i:t=for.	!	!	!	!LO:HP:b:i:t=for.	!	!
!	!	!	!LO:DY:b	!LO:TUP:a:problem=klamra łukowa	!	!LO:TUP:a:problem=klamra łukowa	!LO:DY:b:rj	!	!
8C\J	.	8g\J	f	24ee\LL	.	24ee\LL	f	.	.
.	.	.	.	24ff#\	.	24ff#\	.	.	.
.	.	.	.	24gg\JJ	.	24gg\JJ	.	.	.
4D\	.	4d\	.	4g/	.	4g/	.	.	.
4DD/	.	4c\	.	4aM>/	.	4aM>/	.	.	.
=64	=64	=64	=64	=64	=64	=64	=64	=64	=64
!LO:TX:a:t=P:problem=mixed beam	!	!	!	!	!	!	!	!	!
8GG;>/L	.	4B;</	.	4g;</	.	4g;>/	.	4r	.
8G\	.	.	.	.	.	.	.	.	.
!	!	!	!	!	!	!	!LO:HP:b:i:t=po:	!	!
!	!	!	!	!	!	!	!LO:DY:b	!	!
8GG/	.	8G/L	.	8b/L	.	4.dd\	p	4.dd\	Mi
8AA/	.	8A/	.	8f#/	.	.	.	.	.
!	!	!	!	!	!LO:HP:b:i:t=po:	!	!	!	!
!	!	!	!	!	!LO:DY:b:rj	!	!	!	!
8BB/	.	8B/	.	8g/	p	.	.	.	.
8C/J	.	8c/J	.	8cc/J	.	8ee\	.	8ee\	fi-
!	!	!	!	!	!	!	!	!LO:LB:g=original	!
=65	=65	=65	=65	=65	=65	=65	=65	=65	=65
.	.	.	.	8qqb/	.	8qqgg/	.	8qqg/	.
8D\L	.	8d\L	.	4.a/	.	4.ff#\	.	4.f#/	-dai
8d\	.	8dd\	.	.	.	.	.	.	.
8c\	.	8cc\	.	.	.	.	.	.	.
8B\	.	8b\	.	(>8dd\L	.	(>8gg\L	.	8g\	del
8A\	.	8a\	.	8cc\	.	8aa\	.	8a\	mio
8G\J	.	8g\J	.	8b\J)	.	8bb\J)	.	8b\	ri-
!LO:LB:g=original	!	!	!	!	!	!	!	!	!
=66	=66	=66	=66	=66	=66	=66	=66	=66	=66
!LO:TX:a:t=P:problem=mixed beam	!	!LO:TX:a:t=P:problem=mixed beam	!	!	!	!	!	!	!
8F#\L	.	8f#\L	.	8a/L	.	4ccc\	.	8.a\L	-spet-
8D\	.	8d\	.	8f#/J	.	.	.	.	.
.	.	.	.	.	.	.	.	32b\LL	-to
.	.	.	.	.	.	.	.	32cc\JJJ	.
8G\	.	8g\	.	8g/	.	8bb\L	.	4b\	che
8GG/	.	8G/	.	4b\	.	8gg\	.	.	.
8G\	.	8g\	.	.	.	8gg\	.	8dd\	ve-
8B\J	.	8b\J	.	8dd\	.	8gg\J	.	8g\	-glia-
!	!	!LO:LB:g=original	!	!	!	!	!	!	!
=67	=67	=67	=67	=67	=67	=67	=67	=67	=67
!LO:TX:a:t=P:problem=mixed beam	!	!LO:TX:a:t=P:problem=mixed beam	!	!	!	!	!	!	!
8c\L	.	8cc\L	.	8ee\L	.	8gg\L	.	4.ee\	-va
8C/	.	8c/	.	8ee\	.	8gg\	.	.	.
8C/	.	8c/	.	8ee\	.	8gg\	.	.	.
.	.	.	.	.	.	.	.	8qqdd/	.
8C/	.	8c/	.	8ee\	.	8aa\	.	8cc\	in
.	.	.	.	.	.	.	.	8qqb/	.
8C/	.	8c/	.	8ee\	.	8aa\	.	8a\	guar-
8C#X/J	.	8c#X/J	.	8ee\J	.	8gg\J	.	8g\	-dia
!	!	!	!	!	!	!LO:LB:g=original	!	!	!
=68	=68	=68	=68	=68	=68	=68	=68	=68	=68
.	.	.	.	.	.	8qqgg/	.	8qqg/	.
!	!	!	!	!	!	!	!LO:HP:b:i:t=for.	!	!
!	!	!	!	!	!	!	!LO:DY:b	!	!
4.D\	.	4.d\	.	4.a/	.	4.ff#\	f	8.f#/L	al
.	.	.	.	.	.	.	.	16e/Jk	co-
.	.	.	.	.	.	.	.	4B/	-re
!	!	!	!	!	!LO:DY:a	!	!	!	!
!	!	!	!	!	!LO:HP:b:i:t=for.	!	!	!	!
8d\L	.	8dd\L	.	8dd\L	f	8dd\L	.	.	.
8A\	.	8a\	.	8a\	.	8a\	.	4r	.
8F#\J	.	8f#\J	.	8f#\J	.	8f#\J	.	.	.
=69	=69	=69	=69	=69	=69	=69	=69	=69	=69
8D\L	.	8d\L	.	8d/L	.	8d/L	.	4r	.
8E\	.	8e\	.	8e/	.	8e/	.	.	.
!	!	!	!	!	!LO:DY:b	!	!	!	!
!	!	!	!	!	!LO:HP:b:i:t=po:	!	!	!	!
8Fn\	.	8fn\	.	8fn/	p	8fn/	.	4dd\	ma
8F\	.	8f\	.	8a/J	.	8g/J	.	.	.
!	!	!	!	!	!	!	!LO:HP:b:i:t=po:	!	!
!	!	!	!	!	!	!	!LO:DY:b	!	!
8F\	.	8f\	.	8dd\L	.	8dd\L	p	4dd\	il
8F\J	.	8f\J	.	8aa\J	.	8aa\J	.	.	.
=70	=70	=70	=70	=70	=70	=70	=70	=70	=70
8E\L	.	8e\L	.	8r	.	8r	.	4.dd\	ris-
8E\	.	8b\	.	8ee\L	.	8gg#X\L	.	.	.
8E\	.	8b\	.	8ee\	.	8gg#\	.	.	.
8E\	.	8b\	.	8ee\	.	8gg#\	.	16cc\LL	-pet-
.	.	.	.	.	.	.	.	16b\JJ	.
8E\	.	8b\	.	8ee\	.	8gg#\	.	16a\LL	-to
.	.	.	.	.	.	.	.	16g#X\JJ	.
8E\J	.	8b\J	.	8ee\J	.	8gg#\J	.	16f#/LL	dal
.	.	.	.	.	.	.	.	16e/JJ	l'a-
=71	=71	=71	=71	=71	=71	=71	=71	=71	=71
8E\L	.	8a\L	.	8ffn\L	.	8aa\L	.	4.ffn\	-more
8E\	.	8a\	.	8ff\	.	8aa\	.	.	.
8D\	.	8a\	.	8ff\	.	8aa\	.	.	.
.	.	.	.	.	.	.	.	8qqee/	.
8D\	.	8a\	.	8ff\	.	8aa\	.	8dd\	.
.	.	.	.	.	.	.	.	8qqcc/	.
8D\	.	8dd\	.	8ff\	.	8bb\	.	8b\	fu
8D\J	.	8dd\J	.	8ff\J	.	8aa\J	.	8a\	se-
!	!	!	!	!	!	!	!	!LO:LB:g=original	!
=72	=72	=72	=72	=72	=72	=72	=72	=72	=72
.	.	.	.	.	.	.	.	8qqa/	.
!	!	!	!LO:HP:b:i:t=for.	!	!	!	!LO:DY:b	!	!
!	!	!	!LO:DY:b	!	!	!	!LO:HP:b:i:t=for.	!	!
4D\|	.	4b\|	f	4ff#\|	.	4gg#X\|	f	4g#X\	-dot-
4C\|	.	4cc\|	.	4ee\|	.	4aa\|	.	4a\	-to
4r	.	4r	.	4r	.	4r	.	4r	.
!	!	!	!	!LO:LB:g=original	!	!	!	!	!
=73	=73	=73	=73	=73	=73	=73	=73	=73	=73
4C/	.	8r	.	8r	.	8r	.	4b-X\	e mi
!	!	!	!LO:DY:b	!	!	!	!	!	!
!	!	!	!LO:HP:b:i:t=po:	!	!	!	!	!	!
.	.	8g\L	p	8ee\L	.	8bb-X\L	.	.	.
4C/	.	8g\	.	8ee\	.	8bb-\	.	4b-\	tra-
.	.	8g\	.	8ee\	.	8bb-\	.	.	.
4C/	.	8g\	.	8ee\	.	8bb-\	.	4b-\	-di
.	.	8g\J	.	8ee\J	.	8bb-\J	.	.	.
=74	=74	=74	=74	=74	=74	=74	=74	=74	=74
8r	.	2g\	.	2ee\	.	2bb-X\	.	2ee\	e
8c\L	.	.	.	.	.	.	.	.	.
8c\	.	.	.	.	.	.	.	.	.
8c\	.	.	.	.	.	.	.	.	.
!	!	!	!LO:DY:b	!	!	!	!	!	!
!	!	!	!LO:HP:b:i:t=for:	!	!	!	!	!	!
8d\	.	4fn\	f	4ffn\	.	4aa\	.	4ffn\	mi-
8d\J	.	.	.	.	.	.	.	.	.
=75	=75	=75	=75	=75	=75	=75	=75	=75	=75
!LO:TX:a:t=P:problem=mixed beam	!	!	!	!	!	!	!	!	!
8B-X\L	.	8d\L	.	4dd\	.	4gg\	.	4b-X\	-tra-
8B-\	.	8d\	.	.	.	.	.	.	.
.	.	.	.	8qqa/	.	8qqff#/	.	8qqa/	.
8c\	.	8c\	.	2g/	.	2ee\	.	2g\	-di
8c\	.	8c\	.	.	.	.	.	.	.
8C/	.	8c\	.	.	.	.	.	.	.
8C/J	.	8c\J	.	.	.	.	.	.	.
!LO:LB:g=original	!	!	!	!	!	!	!	!	!
=76	=76	=76	=76	=76	=76	=76	=76	=76	=76
!	!	!	!	!	!	!LO:TX:a:t=P:problem=mixed beam	!	!	!
8Fn\L	.	8fn\L	.	4a\	.	8ffn\L	.	4fn/	dal-
!	!	!	!	!	!	!	!LO:HP:b:i:t=po:	!	!
!	!	!	!	!	!	!LO:SIC:o=8f#/J	!LO:DY:b	!	!
8F\	.	8f\	.	.	.	8fn	p	.	.
8F\	.	8f\	.	4dd\	.	(>8a\L	.	4dd\	.
8F\	.	8f\	.	.	.	8dd\	.	.	.
8F\	.	8f\	.	4dd\	.	8ffn\	.	4dd\	-la-
8F\J	.	8f\J	.	.	.	8aa\J)	.	.	.
=77	=77	=77	=77	=77	=77	=77	=77	=77	=77
8E\L	.	8e\L	.	8dd\L	.	8gg#X\L	.	4.dd\	-more
8E\	.	8e\	.	8gg#X\	.	8bbn\	.	.	.
8E\	.	8e\	.	8gg#\	.	8bb\	.	.	.
8E\	.	8e\	.	8gg#\	.	8bb\	.	16cc\LL	.
.	.	.	.	.	.	.	.	16bn\JJ	.
8E\	.	8e\	.	8aa\	.	8ccc\	.	8cc\	fu
8E\J	.	8e\J	.	8aa\J	.	8ccc\J	.	16b\LL	se-
.	.	.	.	.	.	.	.	16a\JJ	.
!	!	!LO:LB:g=original	!	!	!	!LO:LB:g=original	!	!	!
=78	=78	=78	=78	=78	=78	=78	=78	=78	=78
4E\	.	4e\	.	16gg#X\LL	.	4bb\	.	16g#X/LL	-dot-
.	.	.	.	16ff#\JJ	.	.	.	16f#/JJ	.
.	.	.	.	4ee\	.	.	.	8e/	-to
8r	.	8r	.	.	.	8r	.	8r	.
8c\L	.	8cc\L	.	(>8ee\L	.	(>8aa\L	.	8a\L	fu
8Bn\	.	8bn\	.	8dd\	.	8gg#X\	.	8g#X\J	se-
8A\J	.	8a\J	.	8cc\J)	.	8aa\J)	.	8a\	.
=79	=79	=79	=79	=79	=79	=79	=79	=79	=79
8G#X\L	.	8g#X\L	.	8.bn\L	.	[<2.ee\	.	(>8.bn\L	-dot-
8E\	.	8e\	.	.	.	.	.	.	.
.	.	.	.	32cc\LL	.	.	.	32cc\LL	.
.	.	.	.	32dd\JJJ	.	.	.	32dd\JJJ)	.
8G#\	.	8g#\	.	(>8cc\L	.	.	.	8cc\	-to
!	!	!	!	!	!	!	!	!LO:LB:g=original	!
8c\	.	8cc\	.	8ee\	.	.	.	8a\L	dal-
8B\	.	8b\	.	8dd\	.	.	.	8g#X\J	.
8A\J	.	8a\J	.	8cc\J)	.	.	.	8a\	-l'a-
=80	=80	=80	=80	=80	=80	=80	=80	=80	=80
!LO:TX:a:t=P:problem=mixed beam	!	!LO:TX:a:t=P:problem=mixed beam	!	!	!	!	!	!	!
8G#X\L	.	8g#X\L	.	8b/L	.	2.ee\]	.	8.b\L	-mo-
8E\	.	8e\	.	8g#X/J	.	.	.	.	.
.	.	.	.	.	.	.	.	32cc\LL	-re
.	.	.	.	.	.	.	.	32dd\JJJ	.
8A\	.	8a\	.	[<2a/	.	.	.	4cc\	dal-
8A\	.	8a\	.	.	.	.	.	.	.
8C/	.	8c/	.	.	.	.	.	4a\	.
8C/J	.	8c/J	.	.	.	.	.	.	.
=81	=81	=81	=81	=81	=81	=81	=81	=81	=81
4D\	.	4d\	.	4a/]	.	4dd\	.	4ffn\	-l'a-
!	!	!	!	!	!	!	!LO:DY:b	!	!
!	!	!	!	!	!	!	!LO:HP:b:i:t=for.	!	!
.	.	.	.	8qqa/	.	8qqcc;>/	f	8qqa;</	.
2E\	.	2e\	.	2g#X/	.	2b\	.	2g#X\	-mo-
=82	=82	=82	=82	=82	=82	=82	=82	=82	=82
4AA/	.	4A/	.	4a/	.	4a/	.	4a\	-re.
8r	.	8r	.	8r	.	8r	.	4r	.
!	!	!	!	!	!LO:HP:b:i:t=fortisſ:	!	!LO:DY:b:rj	!	!
!	!	!	!	!	!LO:DY:b	!	!LO:HP:b:i:t=fortiſs:	!	!
8B\L	.	8dd\L	.	8gg\L	ff	8gg\L	ff	.	.
8A\	.	8cc\	.	8ff#X\	.	8ff#X\	.	4r	.
8Gn\J	.	8b\J	.	8gg\J	.	8gg\J	.	.	.
=83	=83	=83	=83	=83	=83	=83	=83	=83	=83
!	!	!	!	!	!	!	!	!LO:N:vis=0	!
8F#X\L	.	8a\L	.	8.aa\L	.	8.aa\L	.	1.r	.
8D\	.	8f#\	.	.	.	.	.	.	.
.	.	.	.	32bb\LL	.	(>32bb\LL	.	.	.
.	.	.	.	32ccc\JJJ	.	32ccc\JJJ)	.	.	.
8G\	.	8d\	.	8bb\L	.	8bb\L	.	.	.
8B\	.	8dd\	.	32ddd\KL	.	(>32ddd\KL	.	.	.
.	.	.	.	16.dd\JJ	.	16.dd\JJ)	.	.	.
!	!	!	!	!LO:LB:g=original	!	!	!	!	!
8G\	.	8cc\	.	(>32ff#\KLL	.	(>32ff#\KLL	.	.	.
.	.	.	.	16.dd\JJ)	.	16.dd\JJ)	.	.	.
8G\J	.	8b\J	.	(>32gg\KLL	.	(>32gg\KLL	.	.	.
.	.	.	.	16.dd\JJ)	.	16.dd\JJ)	.	.	.
=84	=84	=84	=84	=84	=84	=84	=84	=84	=84
!LO:TX:a:t=P:problem=mixed beam	!	!	!	!	!	!	!	!	!
8G\L	.	8d\L	.	[>4aa\	.	[>4aa\	.	.	.
8A\	.	8f#\	.	.	.	.	.	.	.
8F#\	.	8a\	.	8.aa\L]	.	8.aa\L]	.	.	.
8D\	.	8f#\	.	.	.	.	.	.	.
.	.	.	.	32bb\LL	.	(>32bb\LL	.	.	.
.	.	.	.	32ccc\JJJ	.	32ccc\JJJ)	.	.	.
8G\	.	8d\	.	(>8.bb\L	.	8.bb\L	.	.	.
8GG/J	.	8g\J	.	.	.	.	.	.	.
.	.	.	.	32ccc\LL	.	(>32ccc\LL	.	.	.
.	.	.	.	32ddd\JJJ)	.	32ddd\JJJ)	.	.	.
!LO:LB:g=original	!	!	!	!	!	!	!	!	!
=85	=85	=85	=85	=85	=85	=85	=85	=85	=85
8E\L	.	8g\L	.	8ee\L	.	8ee\L	.	2.r	.
8C\J	.	8e\J	.	(>16ccc\L	.	(>16ccc\L	.	.	.
.	.	.	.	16aa\JJ)	.	16aa\JJ)	.	.	.
4D\	.	4d\	.	4gg\	.	4gg\	.	.	.
4DD/	.	4c\	.	4aaM>\	.	4aaM>\	.	.	.
=86	=86	=86	=86	=86	=86	=86	=86	=86	=86
!LO:TX:a:t=P:problem=mixed beamm	!	!	!	!	!	!	!	!	!
8GG/L	.	4B/	.	4gg\	.	4gg\	.	4r	.
8G\J	.	.	.	.	.	.	.	.	.
!	!	!	!	!	!	!	!LO:DY:b	!	!
!	!	!	!	!	!	!	!LO:HP:b:i:t=po:	!	!
8GG/L	.	8G/L	.	8b/L	.	4.dd\	p	4.dd\	ah
!	!LO:DY:b	!	!	!	!	!	!	!	!
!	!LO:HP:i:b:t=po.	!	!	!	!	!	!	!	!
8AA/	p	8A/	.	8f#/	.	.	.	.	.
8BB/	.	8B/	.	8g/	.	.	.	.	.
!LO:TX:b:i:t=Dal Segno	!	!LO:TX:b:i:t=Dal\nSegno	!	!LO:TX:b:i:t=Dal Segno	!	!LO:TX:b:i:t=Dal Segno	!	!LO:TX:b:i:t=Dal Segno	!
!LO:TX:b:t=P:problem=napis "Dal Segno" za kreską na pięciolinii	!	!LO:TX:b:t=P:problem=napis "Dal Segno" za kreską na pięciolinii	!	!LO:TX:b:t=P:problem=napis "Dal Segno" za kreską na pięciolinii	!	!	!	!LO:TX:b:t=P:problem=napis "Dal Segno" za kreską na pięciolinii	!
8C/J	.	8c/J	.	8cc/J	.	8ee\	.	8ee\	per
!LO:TX:t=[segno]	!	!LO:TX:t=[segno]	!	!LO:TX:t=[segno]	!	!LO:TX:t=[segno]	!	!LO:TX:t=[segno]	!
!LO:TX:a:t=P:problem= podwójne segno za kreską taktową	!	!LO:TX:a:t=P:problem= podwójne segno za kreską taktową	!	!LO:TX:a:t=P:problem= podwójne segno za kreską taktową	!	!LO:TX:a:t=P:problem= podwójne segno za kreską taktową	!	!LO:TX:a:t=P:problem= podwójne segno za kreską taktową	!
==	==	==	==	==	==	==	==	==	==
*-	*-	*-	*-	*-	*-	*-	*-	*-	*-
!!!system-decoration: s1,s2,s3,s4,s5
!!!RDF**kern: > = above
!!!RDF**kern: < = below
!!!RDF**kern: | = vertical stroke
!!!EED: Mateusz Mrugas
!!!EEV: 2020-12-04
!!!ENC: Anastazja Marusiak
!!!END: 2020-05-13
